X:43
T:Cherokee
C:Marshal - chord solo
N:TablEdited by Mike Stangeland
L:1/8
Q:1/4=185
M:4/4
K:Bb
z8 |: "Bb"[d8F8B,8] | "Bb"[f4A4D4] [g4B4F4_A,4] | 
[c'8d8B8D8] | [g8e8G8B,8] | [f8B8E8G,8] | [d4G4E4] [f4G4E4] | [d8_G8_A,8] | [c8_G8A,8] | 
"Bb"[B8D8B,8] | "Bb"[d4F4B,4] "Bb"[f4A4D4] | [d'8=e8B8=E8] | [b8=e8G8C8] | [g8B8E8G,8] | 
[f4B4E4G,4] [d4E4B,4] | "Cm7"[c8E8B,8] | "F7#5"[_d8E8A,8] :| [g8B8E8G,8] | [c4E4A,4] "F13"[d4E4A,4] | 
"Bb"[B8D8B,8] | z8 | [=e'8f8A8D8] | [=e'4f4=B4D4] [d'4f4B4D4] | [=e'2_g2A2D2] [_d'2A2D2] [a4A4D4] | 
[a4A4D4] [=e'4_g4A4D4] | [=e'2f2A2D2] [a2A2D2] [c'4A4D4] | z4 [=b4d4_A4=B,4] | 
[=e8_d8=E8A,8] | z8 | [b8c8=E8A,8] | [b4c4_G4A,4] [a4c4G4A,4] | [a2D2G,2] [_g2D2G,2] [d4D4G,4] | 
d4 [a4B4D4G,4] | [a2B2D2G,2] [f2D2G,2] [d4D4G,4] | z4 [a4B4D4G,4] | "Cm7"[c8E8B,8] | 
"F7#5"[_d8E8A,8] | z8 | 


